X: 33
T: Rusty Gun
B: canberra pickers and fiddlers
B: tunes
M:C|
L:1/8
Q: 1/4=100
K:D
V:1 
%
de|f2 df edce|d2d2 A2 de|f2 df edce|d2d2d2 de|
f2 df edce|d2d2 A2 B=c||\
d2d2 AFAc|d2 dB A2 Bc|
d2 dB AFAF|G2G4 AB-|BGBB AGED|G2 BG A2 Bc|
d2 dB AFAB|d2 dB A2 Bc|d2d2 AFAF|G2 G4 GB-|
BGBG AGF2|(DG2)(D G2)||
% abcbook-tune_id 63da59348307e8ba803a9671
% abcbook-tune_composer_id 
% abcbook-link-0 https://www.youtube.com/watch?v=8D39VzNjUfI
% abcbook-boost 0
% abcbook-difficulty 0
% abcbook-tags canberra pickers and fiddlers,old time tunes,© free
% abcbook-tablature 
% abcbook-transpose 
% abcbook-tuning DDAD
% abcbook-lastupdated 1675254068533
% abcbook-src-url https://tunebook.net/scrape/tunes.abc
% abcbook-soundfonts 
% abcbook-repeats 1
%%gchordfont "itim-music,Itim" 20

